public/images/hashed/ebc8c163b116b284dd416a3156e3b493.svg

<?xml version="1.0" encoding="UTF-8"?>
<svg width="80px" height="80px" viewBox="0 0 80 80" version="1.1" xmlns="http://www.w3.org/2000/svg" xmlns:xlink="http://www.w3.org/1999/xlink">
    <!-- Generator: Sketch 64 (93537) - https://sketch.com -->
    <title>Icon-Architecture/64/Arch_AWS-Local-Zones_64</title>
    <desc>Created with Sketch.</desc>
    <defs>
        <linearGradient x1="0%" y1="100%" x2="100%" y2="0%" id="linearGradient-1">
            <stop stop-color="#C8511B" offset="0%"></stop>
            <stop stop-color="#FF9900" offset="100%"></stop>
        </linearGradient>
    </defs>
    <g id="Icon-Architecture/64/Arch_AWS-Local-Zones_64" stroke="none" stroke-width="1" fill="none" fill-rule="evenodd">
        <g id="Icon-Architecture-BG/64/Compute" fill="url(#linearGradient-1)">
            <rect id="Rectangle" x="0" y="0" width="80" height="80"></rect>
        </g>
        <path d="M42.6625082,33.4488889 C42.6625082,32.2395238 41.6944372,31.2553439 40.5048668,31.2553439 C39.3152964,31.2553439 38.3482142,32.2395238 38.3482142,33.4488889 C38.3482142,34.658254 39.3152964,35.6424339 40.5048668,35.6424339 C41.6944372,35.6424339 42.6625082,34.658254 42.6625082,33.4488889 L42.6625082,33.4488889 Z M42.4558414,29.7644974 L56.7593624,13.5853439 L58.2307513,14.929418 L43.934152,31.1015344 C44.3791285,31.7730688 44.6401814,32.5803175 44.6401814,33.4488889 C44.6401814,35.7670899 42.7851239,37.6530159 40.5048668,37.6530159 C38.2255985,37.6530159 36.3705411,35.7670899 36.3705411,33.4488889 C36.3705411,31.1306878 38.2255985,29.2447619 40.5048668,29.2447619 C41.2138626,29.2447619 41.8714389,29.4448148 42.4558414,29.7644974 L42.4558414,29.7644974 Z M44.587773,40.2084656 L44.7064334,40.4798942 C45.3689539,40.0667196 45.9731331,39.5640741 46.4863392,38.9820106 C45.9335796,39.4846561 45.289847,39.8968254 44.587773,40.2084656 L44.587773,40.2084656 Z M40.503878,18.373545 C32.3271883,18.373545 25.6713293,25.1391534 25.6713293,33.4529101 C25.6713293,38.5698413 28.1829742,43.2846561 32.4062952,46.0793651 L33.4841271,44.3904762 C29.8254318,41.9777778 27.6490025,37.8862434 27.6490025,33.4529101 C27.6490025,26.2439683 33.4139197,20.384127 40.503878,20.384127 C41.9782333,20.384127 43.4120463,20.6253968 44.7766408,21.1179894 L46.1896883,19.5195767 C44.3900057,18.7656085 42.4726516,18.373545 40.503878,18.373545 L40.503878,18.373545 Z M53.536744,26.2550265 L52.1227077,27.8534392 C52.9345426,29.6026455 53.3587535,31.5126984 53.3587535,33.4529101 C53.3587535,37.8761905 51.183313,41.9677249 47.5246177,44.3904762 L48.6133267,46.0793651 C52.8247817,43.2746032 55.3364266,38.5587831 55.3364266,33.4529101 C55.3364266,30.9396825 54.7144484,28.4666667 53.536744,26.2550265 L53.536744,26.2550265 Z M36.4209717,40.2034392 C33.7699009,39.0332804 32.0552582,36.3773016 32.0552582,33.4368254 C32.0552582,32.2495767 32.3252106,31.117619 32.8562159,30.0711111 L31.0990533,29.1492593 C30.4315886,30.4641799 30.0775851,31.9469841 30.0775851,33.4368254 C30.0775851,37.1775132 32.2589586,40.5583069 35.6338578,42.0481481 L36.4209717,40.2034392 Z M50.263695,29.9544974 L48.7408866,31.673545 C48.890201,32.2365079 48.9584307,32.8296296 48.9584307,33.4328042 C48.9584307,35.5941799 48.0388127,37.594709 46.4972165,38.9719577 C46.4972165,38.9719577 46.4863392,38.9719577 46.4863392,38.9820106 C45.9335796,39.4846561 45.289847,39.8968254 44.587773,40.2084656 L44.7064334,40.4798942 L45.3788423,42.0481481 C48.750775,40.5603175 50.9361038,37.1825397 50.9361038,33.4328042 C50.9361038,32.2365079 50.7096603,31.0502646 50.263695,29.9544974 L50.263695,29.9544974 Z M60.9737839,33.1513228 C60.3696048,46.0592593 42.0365747,67.7333333 41.2553938,68.6481481 C41.0685036,68.8693122 40.7906406,69 40.503878,69 C40.2171154,69 39.9402411,68.8693122 39.753351,68.6481481 C38.9810696,67.7333333 20.63914,46.0592593 20.0250725,33.1513228 C19.4822012,21.5 27.8082052,12.6031746 39.8324579,12 L41.126845,12 C44.6273265,12.1809524 47.8123691,13.0253968 50.620665,14.5132275 L49.2353049,16.0814815 C46.7938674,14.8550265 44.0636896,14.1613757 41.0872915,14.010582 L39.8720114,14.010582 C29.0531504,14.5534392 21.5083273,22.5656085 22.0027456,33.0507937 C22.5179295,43.857672 37.0142737,62.1740741 40.503878,66.4365079 C43.9954599,62.1740741 58.4918041,43.857672 59.0050103,33.0507937 C59.1731125,29.3714286 58.3237019,25.8428571 56.5536844,22.837037 L58.0072742,21.3994709 C60.1520607,24.8375661 61.1814396,28.9089947 60.9737839,33.1513228 L60.9737839,33.1513228 Z" id="AWS-Local-Zones_Icon_64_Squid" fill="#FFFFFF"></path>
    </g>
</svg>

<svg xmlns="http://www.w3.org/2000/svg" width="80" height="80"><defs><linearGradient id="a" x1="0%" x2="100%" y1="100%" y2="0%"><stop offset="0%" stop-color="#C8511B"/><stop offset="100%" stop-color="#F90"/></linearGradient></defs><g fill="none" fill-rule="evenodd"><path fill="url(#a)" d="M0 0h80v80H0z"/><path fill="#FFF" d="M42.663 33.449c0-1.21-.969-2.194-2.158-2.194-1.19 0-2.157.985-2.157 2.194 0 1.21.967 2.193 2.157 2.193s2.158-.984 2.158-2.193Zm-.207-3.685 14.303-16.179 1.472 1.344-14.297 16.173c.445.671.706 1.478.706 2.347 0 2.318-1.855 4.204-4.135 4.204s-4.134-1.886-4.134-4.204c0-2.318 1.855-4.204 4.134-4.204.709 0 1.366.2 1.95.52Zm2.132 10.444.118.272a8.047 8.047 0 0 0 1.78-1.498 7.097 7.097 0 0 1-1.898 1.226Zm-4.084-21.834c-8.177 0-14.833 6.765-14.833 15.079 0 5.117 2.512 9.832 6.735 12.626l1.078-1.689c-3.659-2.412-5.835-6.504-5.835-10.937 0-7.209 5.765-13.069 12.855-13.069 1.474 0 2.908.241 4.273.734l1.413-1.598a14.66 14.66 0 0 0-5.686-1.146Zm13.033 7.881-1.414 1.598a13.3 13.3 0 0 1 1.236 5.6c0 4.423-2.176 8.515-5.834 10.937l1.088 1.69c4.212-2.805 6.723-7.521 6.723-12.627 0-2.513-.622-4.986-1.8-7.198ZM36.42 40.203c-2.651-1.17-4.366-3.826-4.366-6.766 0-1.187.27-2.32.801-3.366L31.1 29.15a9.516 9.516 0 0 0-1.021 4.288c0 3.74 2.181 7.121 5.556 8.611l.787-1.845Zm13.843-10.249-1.523 1.72c.15.563.217 1.156.217 1.759 0 2.161-.92 4.162-2.46 5.539 0 0-.012 0-.012.01a7.097 7.097 0 0 1-1.898 1.226l.118.272.673 1.568c3.372-1.488 5.557-4.865 5.557-8.615a9.241 9.241 0 0 0-.672-3.479Zm10.71 3.197C60.37 46.06 42.037 67.733 41.255 68.648a.991.991 0 0 1-.751.352.99.99 0 0 1-.75-.352c-.773-.915-19.115-22.589-19.729-35.497C19.482 21.5 27.808 12.603 39.832 12h1.295c3.5.181 6.685 1.025 9.494 2.513l-1.386 1.568c-2.441-1.226-5.171-1.92-8.148-2.07h-1.215c-10.819.542-18.364 8.555-17.87 19.04.516 10.807 15.012 29.123 18.502 33.386 3.491-4.263 17.988-22.58 18.501-33.386.168-3.68-.681-7.208-2.451-10.214l1.453-1.438c2.145 3.439 3.174 7.51 2.967 11.752Z"/></g></svg>
